X:244
%%topspace -50
T: Sun Assembly
M: 4/4
L: 1/4
K: A
"A"a2e2|c2BA|"D"f2A2|"E"G2FE|"A"Acec|"B7"B^dfa|"E"ge"B7"f^d|"E"e2E2|
"A"a2e2|c2BA|"D"f2A2|"E"G2FE|"D"FAdF|"E"EGBd|"A"cB"E7"AG|"A"A2A,2|| 
"A"ceag|"D"f2ed|"A"ceag|"D"f2ed|"A"ceag|"D"gf"A"fe|"E"ed"A"dc|"E7"c2B2|
"Bm"dcBA| "E"G/A/ BE2|"Bm"dcBA| "B7"f/g/ a"E"g2|"D"fdaf|"A"ecBA|"A"E2"E7"G2|"A"A4|] 

